X:1
T: Miss Maria Stewart's Jig
C:
R:Jig
Q:180
K:F
M:6/8
L:1/16
|:c2|f4c2 f4c2|f2g2a2 g2f2e2|d4f2 c4A2|B2G2G2 G4c2|
f4c2 f4c2|f2g2a2 g2f2e2|f4d2 c4B2|A2F2F2 F4B2|
A2F2F2 c2F2F2|d2F2F2 c2F2F2|d4f2 c4A2|B2G2G2 G4c2|
f2e2f2 g2a2b2|a2g2f2 e2f2g2|f4d2 c4B2|A2F2F2 F4:|
